annanekrasova/img/titles/fitness.svg

<?xml version="1.0" encoding="UTF-8"?> <svg xmlns="http://www.w3.org/2000/svg" width="199" height="199" viewBox="0 0 199 199" fill="none"> <path d="M101.697 18.3626L103.654 18.5707L104.372 11.8168L112.37 12.1846L112.551 10.4902L104.553 10.1224L105.266 3.41618L114.335 4.38056L114.512 2.70998L103.486 1.5375L101.697 18.3626Z" fill="#B12B00"></path> <path d="M132.057 9.05641L132.563 7.4544L123.477 4.58522L122.972 6.18723L126.588 7.32912L122.504 20.2597L118.888 19.1178L118.382 20.7198L127.468 23.589L127.974 21.987L124.381 20.8523L128.464 7.92175L132.057 9.05641Z" fill="#B12B00"></path> <path d="M153.022 17.4855L141.147 10.6459L140.309 12.1017L145.425 15.0484L137.819 28.2546L139.503 29.2248L147.109 16.0186L152.184 18.9413L153.022 17.4855Z" fill="#B12B00"></path> <path d="M149.482 35.3929L150.893 36.7642L161.312 26.0395L162.074 24.8064L162.47 25.191L157.108 42.8012L159.948 45.5604L171.738 33.4241L170.343 32.0696L159.925 42.7943L159.162 44.0273L158.766 43.6427L164.112 26.0159L161.271 23.2566L149.482 35.3929Z" fill="#B12B00"></path> <path d="M164.346 50.9913L170.018 59.8136L171.431 58.9051L166.824 51.7383L171.83 48.5197L175.789 54.6771L177.202 53.7686L173.243 47.6112L178.23 44.4056L182.837 51.5724L184.25 50.6639L178.579 41.8417L164.346 50.9913Z" fill="#B12B00"></path> <path d="M181.39 75.9099C184.707 74.7073 184.255 70.7864 184.096 67.321C183.96 64.4092 184.061 62.7895 185.731 62.1841C187.491 61.546 188.613 62.9516 189.407 65.1402C190.29 67.5769 189.845 70.0104 187.138 70.9921L187.809 72.8423C190.403 71.9014 192.688 69.2605 190.986 64.5675C189.563 60.6416 187.452 59.4668 185.015 60.3503C182.195 61.3729 182.164 63.9626 182.353 67.4424C182.525 70.2394 183.043 73.2172 180.629 74.0925C178.711 74.7879 177.492 73.4683 176.51 70.7608C175.3 67.4215 175.406 65.1108 179.174 63.7446L178.504 61.8944C174.781 63.2443 172.919 65.7831 174.931 71.3335C176.633 76.0265 179.021 76.7689 181.39 75.9099Z" fill="#B12B00"></path> <path d="M184.619 96.5253C188.129 96.1675 188.647 92.2548 189.338 88.8552C189.915 85.998 190.409 84.4519 192.176 84.2719C194.038 84.082 194.784 85.7188 195.02 88.0348C195.283 90.6135 194.258 92.865 191.392 93.1571L191.592 95.1149C194.338 94.835 197.197 92.8307 196.691 87.8645C196.268 83.71 194.507 82.056 191.928 82.3189C188.944 82.6231 188.282 85.1271 187.618 88.5481C187.102 91.3025 186.879 94.3167 184.324 94.5771C182.295 94.784 181.434 93.2071 181.142 90.342C180.782 86.8083 181.449 84.5932 185.436 84.1868L185.237 82.229C181.297 82.6305 178.872 84.6388 179.471 90.5123C179.977 95.4786 182.112 96.7808 184.619 96.5253Z" fill="#B12B00"></path> <path d="M183.642 114.403L183.235 115.959C184.628 116.323 184.714 117.04 184.55 117.667C184.107 119.362 181.849 120.409 181.266 122.638C180.926 123.938 181.432 125.608 183.777 126.222L184.184 124.666C182.791 124.302 182.682 123.579 182.846 122.952C183.283 121.28 185.547 120.21 186.13 117.981C186.464 116.704 185.987 115.016 183.642 114.403Z" fill="#B12B00"></path> <path d="M169.688 139.769L168.576 141.393L174.179 145.231L170.059 152.096L171.465 153.059L175.585 146.194L181.149 150.005L175.995 157.529L177.381 158.479L183.647 149.331L169.688 139.769Z" fill="#B12B00"></path> <path d="M163.53 170.988L164.7 172.193L171.537 165.557L170.367 164.351L167.646 166.992L158.201 157.263L160.922 154.622L159.751 153.416L152.915 160.053L154.085 161.258L156.789 158.634L166.234 168.363L163.53 170.988Z" fill="#B12B00"></path> <path d="M146.204 185.376L157.835 178.128L156.946 176.703L151.935 179.825L143.875 166.891L142.225 167.919L150.286 180.853L145.316 183.95L146.204 185.376Z" fill="#B12B00"></path> <path d="M132.025 173.733L130.149 174.325L134.651 188.583L135.375 189.84L134.849 190.006L121.887 176.934L118.11 178.127L123.206 194.261L125.059 193.676L120.557 179.418L119.833 178.162L120.359 177.995L133.344 191.06L137.12 189.867L132.025 173.733Z" fill="#B12B00"></path> <path d="M111.226 179.565L100.765 180.314L100.885 181.99L109.383 181.381L109.809 187.318L102.508 187.841L102.628 189.517L109.929 188.993L110.353 194.906L101.855 195.515L101.975 197.191L112.436 196.441L111.226 179.565Z" fill="#B12B00"></path> <path d="M81.3186 182.763C80.8148 186.255 84.4852 187.706 87.6159 189.2C90.248 190.453 91.6282 191.307 91.3746 193.065C91.1073 194.918 89.3385 195.244 87.0343 194.912C84.4689 194.542 82.533 193.001 82.9443 190.151L80.9964 189.87C80.6023 192.602 81.8536 195.862 86.7944 196.575C90.9276 197.171 92.9591 195.864 93.3293 193.298C93.7577 190.329 91.4888 189.08 88.3309 187.606C85.7835 186.438 82.9134 185.491 83.2802 182.949C83.5715 180.93 85.3099 180.478 88.1604 180.889C91.676 181.396 93.6633 182.58 93.0909 186.547L95.0387 186.828C95.6042 182.909 94.2438 180.069 88.4003 179.226C83.4594 178.513 81.6785 180.269 81.3186 182.763Z" fill="#B12B00"></path> <path d="M61.6325 175.732C60.2857 178.993 63.4867 181.302 66.1539 183.52C68.3972 185.381 69.5251 186.548 68.8471 188.19C68.1324 189.92 66.3376 189.802 64.1859 188.913C61.7902 187.923 60.2924 185.954 61.3919 183.293L59.573 182.541C58.5193 185.092 58.9306 188.56 63.5445 190.466C67.4043 192.06 69.6948 191.292 70.6843 188.897C71.8296 186.124 69.9374 184.355 67.2389 182.15C65.0568 180.392 62.5078 178.768 63.4881 176.394C64.2669 174.509 66.0632 174.498 68.7251 175.597C72.008 176.953 73.6433 178.589 72.1132 182.294L73.9321 183.045C75.4439 179.385 74.8233 176.298 69.3664 174.045C64.7525 172.139 62.5946 173.403 61.6325 175.732Z" fill="#B12B00"></path> <path d="M46.2983 166.519L45.1209 165.423C44.1401 166.478 43.4683 166.213 42.9938 165.772C41.711 164.579 41.859 162.094 40.172 160.525C39.188 159.609 37.4773 159.264 35.8263 161.039L37.0037 162.134C37.9845 161.079 38.6726 161.326 39.1471 161.768C40.4123 162.945 40.282 165.446 41.9689 167.015C42.9354 167.914 44.6473 168.293 46.2983 166.519Z" fill="#B12B00"></path> <path d="M30.5633 142.257L29.6554 140.511L23.6292 143.644L19.5168 136.775L18.0049 137.561L22.1173 144.43L16.1337 147.541L11.9268 139.449L10.4362 140.224L15.5509 150.062L30.5633 142.257Z" fill="#B12B00"></path> <path d="M6.02457 121.933L4.40732 122.388L6.98698 131.56L8.60424 131.106L7.57757 127.455L20.6311 123.784L21.6578 127.434L23.275 126.979L20.6954 117.807L19.0781 118.262L20.0983 121.889L7.04474 125.561L6.02457 121.933Z" fill="#B12B00"></path> <path d="M1.48511 99.9419L2.34559 113.619L4.02227 113.513L3.65156 107.621L18.8615 106.664L18.7394 104.724L3.52949 105.681L3.16179 99.8364L1.48511 99.9419Z" fill="#B12B00"></path> <path d="M18.351 93.0104L18.7113 91.0757L4.01206 88.3381L2.56287 88.3856L2.66393 87.8429L20.2976 82.5582L21.0227 78.6651L4.3887 75.5672L4.03276 77.4783L18.732 80.2159L20.1812 80.1684L20.0801 80.7111L2.44204 86.0194L1.71699 89.9125L18.351 93.0104Z" fill="#B12B00"></path> <path d="M23.1805 71.9183L27.4887 62.3561L25.957 61.6659L22.4572 69.4339L17.0305 66.9889L20.0374 60.315L18.5057 59.6249L15.4988 66.2988L10.0941 63.8637L13.5939 56.0957L12.0622 55.4056L7.75392 64.9679L23.1805 71.9183Z" fill="#B12B00"></path> <path d="M34.4895 44.0355C31.6553 41.9345 28.6359 44.4762 25.8344 46.5223C23.4824 48.2442 22.0757 49.0537 20.649 47.996C19.1451 46.8812 19.6972 45.1693 21.0836 43.2991C22.6272 41.2169 24.9018 40.2442 27.2154 41.9593L28.3874 40.3783C26.1702 38.7347 22.7068 38.2884 19.734 42.2987C17.247 45.6534 17.4333 48.062 19.5155 49.6056C21.9256 51.3922 24.1018 49.988 26.8982 47.9083C29.1352 46.2206 31.3316 44.1443 33.3946 45.6736C35.0334 46.8885 34.6064 48.6333 32.8912 50.9469C30.7759 53.8004 28.7905 54.9875 25.5708 52.6006L24.3988 54.1816C27.58 56.5399 30.7249 56.6903 34.2409 51.9474C37.2137 47.9372 36.5139 45.5362 34.4895 44.0355Z" fill="#B12B00"></path> <path d="M49.7434 29.8986C47.4883 27.1854 43.9522 28.9386 40.7455 30.262C38.0522 31.3771 36.4937 31.8299 35.3584 30.464C34.1619 29.0244 35.1041 27.4922 36.8945 26.0042C38.8878 24.3474 41.3282 23.9418 43.1691 26.1566L44.6826 24.8987C42.9184 22.7761 39.6596 21.5213 35.8206 24.7122C32.6091 27.3815 32.2189 29.7656 33.8757 31.7589C35.7933 34.066 38.2404 33.218 41.4502 31.8608C44.0236 30.7517 46.6498 29.2555 48.2913 31.2304C49.5952 32.7992 48.7666 34.393 46.5517 36.2339C43.8201 38.5043 41.6098 39.1868 39.0479 36.1044L37.5345 37.3624C40.0657 40.4078 43.0852 41.2997 47.6256 37.5259C51.4647 34.335 51.3541 31.8366 49.7434 29.8986Z" fill="#B12B00"></path> <path d="M65.3318 20.8555L66.8536 20.336C66.3883 18.9732 66.939 18.5062 67.5523 18.2969C69.2103 17.7308 71.3297 19.0361 73.5101 18.2917C74.782 17.8574 75.8956 16.5136 75.1124 14.2196L73.5906 14.7391C74.0559 16.1019 73.513 16.5916 72.8997 16.8009C71.2644 17.3592 69.1223 16.0617 66.9419 16.8061C65.6927 17.2326 64.5487 18.5615 65.3318 20.8555Z" fill="#B12B00"></path> </svg>

<svg xmlns="http://www.w3.org/2000/svg" width="199" height="199" fill="none"><path d="M101.697 18.363l1.957.208.718-6.754 7.998.368.181-1.695-7.998-.368.713-6.706 9.069.965.177-1.671-11.026-1.172-1.789 16.825zm30.36-9.307l.506-1.602-9.086-2.869-.505 1.602 3.616 1.142-4.084 12.93-3.616-1.141-.506 1.602 9.086 2.869.506-1.602-3.593-1.135 4.083-12.93 3.593 1.134zm20.965 8.429l-11.875-6.84-.838 1.457 5.116 2.946-7.606 13.207 1.684.97 7.606-13.206 5.075 2.922.838-1.456zm-3.54 17.908l1.411 1.371 10.419-10.725.762-1.233.396.385-5.362 17.61 2.84 2.76 11.79-12.137-1.395-1.354-10.418 10.724-.763 1.233-.396-.384 5.346-17.627-2.841-2.76-11.789 12.137zm14.864 15.598l5.672 8.823 1.413-.909-4.607-7.167 5.006-3.218 3.959 6.157 1.413-.908-3.959-6.158 4.987-3.205 4.607 7.166 1.413-.908-5.671-8.822-14.233 9.15zM181.39 75.91c3.317-1.203 2.865-5.124 2.706-8.589-.136-2.912-.035-4.532 1.635-5.137 1.76-.638 2.882.768 3.676 2.956.883 2.437.438 4.87-2.269 5.852l.671 1.85c2.594-.94 4.879-3.582 3.177-8.275-1.423-3.925-3.534-5.1-5.971-4.217-2.82 1.023-2.851 3.613-2.662 7.092.172 2.797.69 5.775-1.724 6.65-1.918.696-3.137-.624-4.119-3.331-1.21-3.34-1.104-5.65 2.664-7.016l-.67-1.85c-3.723 1.35-5.585 3.888-3.573 9.438 1.702 4.694 4.09 5.436 6.459 4.577zm3.229 20.615c3.51-.358 4.028-4.27 4.719-7.67.577-2.857 1.071-4.403 2.838-4.583 1.862-.19 2.608 1.447 2.844 3.763.263 2.579-.762 4.83-3.628 5.122l.2 1.958c2.746-.28 5.605-2.284 5.099-7.25-.423-4.155-2.184-5.809-4.763-5.546-2.984.304-3.646 2.808-4.31 6.23-.516 2.753-.739 5.768-3.294 6.028-2.029.207-2.89-1.37-3.182-4.235-.36-3.534.307-5.749 4.294-6.155l-.199-1.958c-3.94.401-6.365 2.41-5.766 8.283.506 4.967 2.641 6.269 5.148 6.013zm-.977 17.878l-.407 1.556c1.393.364 1.479 1.081 1.315 1.708-.443 1.695-2.701 2.742-3.284 4.971-.34 1.3.166 2.97 2.511 3.584l.407-1.556c-1.393-.364-1.502-1.087-1.338-1.714.437-1.672 2.701-2.742 3.284-4.971.334-1.277-.143-2.965-2.488-3.578zm-13.954 25.366l-1.112 1.624 5.603 3.838-4.12 6.865 1.406.963 4.12-6.865 5.564 3.811-5.154 7.524 1.386.95 6.266-9.148-13.959-9.562zm-6.158 31.219l1.17 1.205 6.837-6.636-1.17-1.206-2.721 2.641-9.445-9.729 2.721-2.641-1.171-1.206-6.836 6.637 1.17 1.205 2.704-2.624 9.445 9.729-2.704 2.625zm-17.326 14.388l11.631-7.248-.889-1.425-5.011 3.122-8.06-12.934-1.65 1.028 8.061 12.934-4.97 3.097.888 1.426zm-14.179-11.643l-1.876.592 4.502 14.258.724 1.257-.526.166-12.962-13.072-3.777 1.193 5.096 16.134 1.853-.585-4.502-14.258-.724-1.256.526-.167 12.985 13.065 3.776-1.193-5.095-16.134zm-20.799 5.832l-10.461.749.12 1.676 8.498-.609.426 5.937-7.301.523.12 1.676 7.301-.524.424 5.913-8.498.609.12 1.676 10.461-.75-1.21-16.876zm-29.907 3.198c-.504 3.492 3.166 4.943 6.297 6.437 2.632 1.253 4.012 2.107 3.759 3.865-.268 1.853-2.037 2.179-4.34 1.847-2.566-.37-4.502-1.911-4.09-4.761l-1.949-.281c-.394 2.732.858 5.992 5.798 6.705 4.134.596 6.165-.711 6.535-3.277.429-2.969-1.84-4.218-4.998-5.692-2.547-1.168-5.418-2.115-5.05-4.657.29-2.019 2.029-2.471 4.88-2.06 3.515.507 5.502 1.691 4.93 5.658l1.948.281c.565-3.919-.795-6.759-6.639-7.602-4.94-.713-6.722 1.043-7.081 3.537zm-19.686-7.031c-1.347 3.261 1.854 5.57 4.52 7.788 2.244 1.861 3.372 3.028 2.694 4.67-.715 1.73-2.51 1.612-4.661.723-2.396-.99-3.894-2.959-2.794-5.62l-1.819-.752c-1.054 2.551-.642 6.019 3.971 7.925 3.86 1.594 6.15.826 7.14-1.569 1.146-2.773-.747-4.542-3.445-6.747-2.182-1.758-4.731-3.382-3.75-5.756.778-1.885 2.574-1.896 5.236-.797 3.283 1.356 4.918 2.992 3.388 6.697l1.82.751c1.51-3.66.89-6.747-4.567-9-4.614-1.906-6.771-.642-7.733 1.687zm-15.335-9.213l-1.177-1.096c-.98 1.055-1.653.79-2.127.349-1.283-1.193-1.135-3.678-2.822-5.247-.984-.916-2.695-1.261-4.346.514l1.178 1.095c.98-1.055 1.669-.808 2.143-.366 1.265 1.177 1.135 3.678 2.822 5.247.966.899 2.678 1.278 4.33-.496zm-15.735-24.262l-.908-1.746-6.026 3.133-4.112-6.869-1.512.786 4.112 6.869-5.983 3.111-4.207-8.092-1.49.775 5.114 9.838 15.012-7.805zM6.025 121.933l-1.618.455 2.58 9.172 1.617-.454-1.026-3.651 13.053-3.671 1.027 3.65 1.617-.455-2.58-9.172-1.617.455 1.02 3.627-13.053 3.672-1.02-3.628zm-4.54-21.991l.86 13.677 1.677-.106-.37-5.892 15.21-.957-.123-1.94-15.21.957-.367-5.845-1.677.106zm16.866-6.932l.36-1.934-14.699-2.738-1.45.048.102-.543 17.634-5.285.725-3.893-16.634-3.098-.356 1.911 14.699 2.738 1.45-.048-.102.543L2.442 86.02l-.725 3.893 16.634 3.098zm4.829-21.092l4.309-9.562-1.532-.69-3.5 7.768-5.427-2.445 3.007-6.674-1.531-.69-3.007 6.674-5.405-2.435 3.5-7.768-1.532-.69-4.308 9.562 15.426 6.95zm11.31-27.883c-2.835-2.1-5.854.441-8.656 2.487-2.352 1.722-3.758 2.532-5.185 1.474-1.504-1.115-.952-2.827.435-4.697 1.543-2.082 3.818-3.055 6.131-1.34l1.172-1.58c-2.217-1.644-5.68-2.09-8.653 1.92-2.487 3.354-2.3 5.763-.219 7.307 2.41 1.786 4.587.382 7.383-1.698 2.237-1.687 4.434-3.764 6.497-2.234 1.638 1.215 1.211 2.96-.504 5.273-2.115 2.853-4.1 4.04-7.32 1.654l-1.172 1.58c3.181 2.359 6.326 2.51 9.842-2.234 2.973-4.01 2.273-6.41.248-7.912zm15.253-14.136c-2.255-2.714-5.79-.96-8.998.363-2.693 1.115-4.251 1.568-5.387.202-1.196-1.44-.254-2.972 1.537-4.46 1.993-1.657 4.433-2.062 6.274.153l1.514-1.258c-1.765-2.123-5.023-3.378-8.862-.187-3.212 2.67-3.602 5.054-1.945 7.047 1.917 2.307 4.364 1.459 7.574.102 2.574-1.11 5.2-2.605 6.841-.63 1.304 1.568.476 3.162-1.74 5.003-2.73 2.27-4.941 2.953-7.503-.13l-1.514 1.258c2.532 3.046 5.551 3.938 10.092.164 3.839-3.191 3.728-5.69 2.117-7.627zm15.589-9.044l1.522-.519c-.466-1.363.085-1.83.698-2.04 1.658-.565 3.778.74 5.958-.004 1.272-.435 2.386-1.778 1.602-4.072l-1.521.52c.465 1.362-.078 1.852-.691 2.06-1.636.56-3.778-.738-5.958.006-1.25.427-2.393 1.755-1.61 4.05z" fill="#B12B00"/></svg>
